localPackages/DesignSystem/Sources/DesignSystem/Resources/Assets.xcassets/IconSet/ic-tv.imageset/ic-tv.svg

<svg width="24" height="24" viewBox="0 0 24 24" fill="none" xmlns="http://www.w3.org/2000/svg">
<g id="ic-tv">
<path id="Icon" fill-rule="evenodd" clip-rule="evenodd" d="M3.75 3C2.50736 3 1.5 4.00736 1.5 5.25V15.75C1.5 16.9926 2.50736 18 3.75 18H11.25V21H7.5C7.08579 21 6.75 21.3358 6.75 21.75C6.75 22.1642 7.08579 22.5 7.5 22.5H12H16.5C16.9142 22.5 17.25 22.1642 17.25 21.75C17.25 21.3358 16.9142 21 16.5 21H12.75V18H20.25C21.4926 18 22.5 16.9926 22.5 15.75V5.25C22.5 4.00736 21.4926 3 20.25 3H3.75ZM12 16.5H20.25C20.6642 16.5 21 16.1642 21 15.75V5.25C21 4.83579 20.6642 4.5 20.25 4.5H3.75C3.33579 4.5 3 4.83579 3 5.25V15.75C3 16.1642 3.33579 16.5 3.75 16.5H12Z" fill="#0F0F0F"/>
</g>
</svg>

<svg xmlns="http://www.w3.org/2000/svg" width="24" height="24" viewBox="0 0 24 24">
  <g class="ic-tv">
    <path fill-rule="evenodd" d="M3.75 3A2.25 2.25 0 0 0 1.5 5.25v10.5A2.25 2.25 0 0 0 3.75 18h7.5v3H7.5a.75.75 0 0 0 0 1.5h9a.75.75 0 0 0 0-1.5h-3.75v-3h7.5a2.25 2.25 0 0 0 2.25-2.25V5.25A2.25 2.25 0 0 0 20.25 3H3.75ZM12 16.5h8.25a.75.75 0 0 0 .75-.75V5.25a.75.75 0 0 0-.75-.75H3.75a.75.75 0 0 0-.75.75v10.5c0 .414.336.75.75.75H12Z" class="Icon"/>
  </g>
</svg>
